material/.icons/material/mailbox-open.svg

<svg xmlns="http://www.w3.org/2000/svg" viewBox="0 0 24 24"><path d="M8 4a5 5 0 00-5 5v9H1v2h20a2 2 0 002-2V9a5 5 0 00-5-5H8m0 2a3 3 0 013 3v9H5V9a3 3 0 013-3m6 5h6v4h-2v-2h-4v-2z"/></svg>

<?xml version="1.0" encoding="UTF-8"?><!DOCTYPE svg PUBLIC "-//W3C//DTD SVG 1.1//EN" "http://www.w3.org/Graphics/SVG/1.1/DTD/svg11.dtd"><svg xmlns="http://www.w3.org/2000/svg" xmlns:xlink="http://www.w3.org/1999/xlink" version="1.1" id="mdi-mailbox-open" width="24" height="24" viewBox="0 0 24 24"><path d="M8,4A5,5 0 0,0 3,9V18H1V20H21A2,2 0 0,0 23,18V9A5,5 0 0,0 18,4H8M8,6A3,3 0 0,1 11,9V18H5V9A3,3 0 0,1 8,6M14,11H20V15H18V13H14V11Z" /></svg>
